symbols/web/desk/materialsymbolsrounded/desk_wght300gradN25_20px.svg

<svg xmlns="http://www.w3.org/2000/svg" height="20" width="20"><path d="M2.167 14.125V6.25q0-.312.218-.542.219-.229.532-.229h14.166q.313 0 .542.229.229.23.229.542v7.875q0 .25-.198.437-.198.188-.448.188-.125 0-.239-.052-.115-.052-.188-.136-.073-.083-.125-.197-.052-.115-.052-.24v-.958H13v.958q0 .125-.052.24-.052.114-.136.197-.083.084-.197.136-.115.052-.219.052-.25 0-.448-.188-.198-.187-.198-.437V6.729H3.417v7.396q0 .25-.198.437-.198.188-.427.188-.25 0-.438-.188-.187-.187-.187-.437ZM13 8.583h3.604V6.729H13Zm0 3.334h3.604V9.833H13Z"/></svg>

<svg xmlns="http://www.w3.org/2000/svg" height="20" width="20"><path d="M2.167 14.125V6.25Q2.167 5.938 2.385 5.708Q2.604 5.479 2.917 5.479H17.083Q17.396 5.479 17.625 5.708Q17.854 5.938 17.854 6.25V14.125Q17.854 14.375 17.656 14.562Q17.458 14.75 17.208 14.75Q17.083 14.75 16.969 14.698Q16.854 14.646 16.781 14.562Q16.708 14.479 16.656 14.365Q16.604 14.25 16.604 14.125V13.167H13V14.125Q13 14.25 12.948 14.365Q12.896 14.479 12.812 14.562Q12.729 14.646 12.615 14.698Q12.5 14.75 12.396 14.75Q12.146 14.75 11.948 14.562Q11.75 14.375 11.75 14.125V6.729H3.417V14.125Q3.417 14.375 3.219 14.562Q3.021 14.75 2.792 14.75Q2.542 14.75 2.354 14.562Q2.167 14.375 2.167 14.125ZM13 8.583H16.604V6.729H13ZM13 11.917H16.604V9.833H13Z"/></svg>
